X:895
T: Road to Clonmel
T: B\'othar Chluain Meala
C: W.Jones
S: B.Breathnach:"Ceol Rince na hEireann" IV/180
Z: B.Black
L: 1/8
M: 4/4
R: reel
K: D
B,|A,D (3DDD FDAD|GFED CEAG|FD (3DDD FGAB|cAGE FDDB,|
A,D (3DDD FDAD|GFED CEAG|FD (3DDD FGAB|cAGE FDD ||
B|Ad d2 fd d2|Ad d2 cAGc|Ad d2 fded|cAGE FD D2|
Ad d2 fd d2|Ad d2 cAGE|DEFG AddB|cAGE FDD ||
